X: 1
T: Sweeny's Buttermilk
M: 4/4
L: 1/8
R: reel
K: Bmin
FB B2 fB B2 |dcBc AE E2 |FB B2 ABce |afec Ba^ga |
f3 a fecf |ec c2 BAFE |FB B2 ABce |afec B2 BA :|
FBdc BF F2 |EAcB AE E2 |FBdB cefb |afec d3 c |
Bcde fB B2 |afec ABce |f2 bf afea |afec B2 BA :|
